svg/color/kal.svg

<svg width="64" height="65" viewBox="0 0 64 65" fill="none" xmlns="http://www.w3.org/2000/svg">
<g clip-path="url(#clip0_28719_163)">
<rect y="0.303711" width="64" height="64" rx="32" fill="#462DE0"/>
<path fill-rule="evenodd" clip-rule="evenodd" d="M50.5516 23.5282V28.8811L35.273 19.9454L42.0503 15.9814L48.3505 19.6662C49.7083 20.4602 50.5516 21.94 50.5516 23.5282ZM13.4483 34.7263L28.7267 43.662L21.9496 47.6258L15.6492 43.941C14.2917 43.1471 13.4483 41.6674 13.4483 40.0793V34.7263ZM23.4985 36.7758V28.7458L38.8648 37.7329L32.0162 41.7574L23.4985 36.7758ZM31.9999 21.8596L40.5013 26.8316V34.8614L25.1351 25.8745L31.9999 21.8596ZM31.9999 10.7955C32.7737 10.7955 33.5347 11.0013 34.2009 11.3908L38.777 14.0674L23.4984 23.0032L23.4822 15.0852L29.7988 11.3908C30.4652 11.0013 31.2261 10.7955 31.9999 10.7955ZM15.6492 19.6665L20.2255 16.99V34.8616L13.4483 30.9168V23.5282C13.4483 21.94 14.2917 20.4602 15.6492 19.6665ZM40.5176 48.5221L34.2009 52.2167C33.5345 52.6062 32.7734 52.8121 31.9999 52.8121C31.2266 52.8121 30.4655 52.6062 29.7988 52.2167L25.2227 49.5402L40.5015 40.6042L40.5176 48.5221ZM48.3505 43.941L43.7742 46.6173V28.7457L50.5516 32.6909V40.0793C50.5516 41.6674 49.7083 43.1471 48.3505 43.941ZM50.0746 16.6413L35.925 8.36575C34.7373 7.67088 33.38 7.30371 31.9999 7.30371C30.6199 7.30371 29.2625 7.67088 28.0747 8.36575L13.925 16.6413C11.5039 18.0574 10 20.6964 10 23.5282V40.0793C10 42.9112 11.5039 45.5502 13.925 46.9661L28.0747 55.2417C29.2627 55.9364 30.62 56.3037 31.9999 56.3037C33.3797 56.3037 34.737 55.9364 35.925 55.2417L50.0746 46.9661C52.4959 45.5502 54 42.9112 54 40.0793V23.5282C54 20.6963 52.4959 18.0572 50.0746 16.6413Z" fill="white"/>
</g>
<rect x="0.5" y="0.803711" width="63" height="63" rx="31.5" stroke="#070B14" stroke-opacity="0.15"/>
<defs>
<clipPath id="clip0_28719_163">
<rect y="0.303711" width="64" height="64" rx="32" fill="white"/>
</clipPath>
</defs>
</svg>

<svg xmlns="http://www.w3.org/2000/svg" width="64" height="65" fill="none" viewBox="0 0 64 65"><g clip-path="url(#kal_svg-a)"><rect width="64" height="64" y=".304" fill="#462DE0" rx="32"/><path fill="#fff" fill-rule="evenodd" d="M50.552 23.528v5.353l-15.279-8.936 6.777-3.964 6.3 3.685a4.48 4.48 0 0 1 2.202 3.862M13.448 34.726l15.279 8.936-6.777 3.964-6.3-3.685a4.48 4.48 0 0 1-2.202-3.862zm10.05 2.05v-8.03l15.367 8.987-6.849 4.024zM32 21.86l8.501 4.972v8.03l-15.366-8.987zm0-11.064c.774 0 1.535.205 2.2.595l4.577 2.676-15.279 8.936-.016-7.918 6.317-3.694a4.37 4.37 0 0 1 2.2-.595m-16.35 8.87 4.576-2.676v17.872l-6.778-3.945v-7.389c0-1.588.844-3.068 2.201-3.861m24.868 28.856L34.2 52.217a4.37 4.37 0 0 1-4.402 0l-4.576-2.677 15.279-8.936zm7.832-4.581-4.576 2.676V28.746l6.778 3.945v7.388a4.48 4.48 0 0 1-2.202 3.862m1.725-27.3-14.15-8.275a7.78 7.78 0 0 0-7.85 0l-14.15 8.275C11.504 18.057 10 20.696 10 23.528V40.08c0 2.832 1.504 5.471 3.925 6.887l14.15 8.276a7.78 7.78 0 0 0 7.85 0l14.15-8.276C52.495 45.55 54 42.911 54 40.08V23.53c0-2.833-1.504-5.472-3.925-6.888" clip-rule="evenodd"/></g><rect width="63" height="63" x=".5" y=".804" stroke="#070B14" stroke-opacity=".15" rx="31.5"/><defs><clipPath id="kal_svg-a"><rect width="64" height="64" y=".304" fill="#fff" rx="32"/></clipPath></defs></svg>
